X:4
T:Cadaneasca
R:cadaneasca
O:Romania
Z:id:hn-cadaneasca-4
M:2+2+2+3/16
L:1/16
Q:1/8=220
K:Am
^gaea ga e2d | dccB cd eeB | cde^g ae e2d | dBcA BG A3 :|
Bc d2d2 fed | dccB cd eec | Bc d2d2 fed | dBcA BG A3 |
Bc d2d2 fed | dccB cd eeB | cde^g ae e2d | dBcA BG A3 ||



